icon/spotify.svg

<?xml version="1.0" ?><svg height="60px" version="1.1" viewBox="0 0 60 60" width="60px" xmlns="http://www.w3.org/2000/svg" xmlns:sketch="http://www.bohemiancoding.com/sketch/ns" xmlns:xlink="http://www.w3.org/1999/xlink"><title/><defs/><g fill="none" fill-rule="evenodd" id="black" stroke="none" stroke-width="1"><g id="Spotify"><path d="M30,60 C46.5685433,60 60,46.5685433 60,30 C60,13.4314567 46.5685433,0 30,0 C13.4314567,0 0,13.4314567 0,30 C0,46.5685433 13.4314567,60 30,60 Z" fill="#000000"/><path d="M38.676152,41.5377386 C38.4592954,41.531377 38.2431339,41.4670537 38.0471289,41.343355 C38.0450438,41.343355 37.7941296,41.1814865 37.2790952,40.9008672 C36.7633657,40.6195411 36.0036726,40.2321875 35.0570101,39.825749 C33.1657704,39.0072173 30.5183129,38.1010361 27.5594715,37.7532662 C26.651037,37.6472387 25.7766601,37.5822086 24.9405111,37.5546414 C21.1802734,37.4288222 18.2249073,37.9978361 17.0203802,38.2791622 C16.6172493,38.3731732 16.4316701,38.430428 16.4309751,38.430428 C15.7602488,38.6304664 15.058245,38.238165 14.8608499,37.556762 C14.66554,36.8739453 15.0492094,36.1586136 15.7192406,35.959282 C15.8047322,35.9345423 19.6170988,34.8042899 25.0204422,34.9817091 C25.9212312,35.0128105 26.8685887,35.0813749 27.8472235,35.1965914 C34.4120008,35.9776601 39.2982246,39.1125378 39.3885815,39.1598968 C39.982157,39.5380613 40.1614807,40.3325602 39.7903223,40.9340891 C39.5442735,41.3384071 39.1126454,41.5525825 38.676152,41.5377386 Z M43.2787942,33.9468814 C42.9688005,34.4494514 42.4308293,34.7194679 41.8852126,34.700383 C41.6141418,34.6911939 41.3437661,34.6106131 41.0991074,34.4551062 C41.0977173,34.4572267 41.0421131,34.41835 40.8926766,34.3299938 C40.7418501,34.2409308 40.5152627,34.1101636 40.2205602,33.9497088 C39.6269848,33.6259717 38.7567782,33.1806564 37.6662398,32.7106015 C35.4907233,31.7697847 32.4456954,30.7307159 29.0441051,30.3320528 C28.0029154,30.2090609 26.9957834,30.1362554 26.0331347,30.1044472 C21.7064287,29.9588362 18.3055335,30.612672 16.9230727,30.9364091 C16.4615574,31.045264 16.2523464,31.1074667 16.2509563,31.1095873 C15.4134172,31.3569846 14.5334799,30.8678447 14.2888212,30.0146773 C14.0427724,29.1608031 14.5230541,28.2666384 15.3626783,28.0206548 C15.4690215,27.9874328 19.8812191,26.680468 26.1353075,26.8882818 C27.1778873,26.9229174 28.271901,27.0006709 29.4055328,27.1349723 C37.0121947,28.0411534 42.6671474,31.665171 42.779746,31.7294943 C43.5185875,32.2030835 43.7437848,33.1947934 43.2787942,33.9468814 Z M47.0181803,26.863542 C46.6449367,27.4671916 45.9971472,27.789515 45.3444922,27.7676026 C45.0212925,27.7569999 44.6953126,27.6615752 44.4026952,27.4735532 C44.4026952,27.4735532 44.33458,27.4297285 44.1580365,27.3244079 C43.9828831,27.2212079 43.7166777,27.0664079 43.3663709,26.8755585 C42.6685375,26.497394 41.6419439,25.9736185 40.3574857,25.4180347 C37.7927394,24.3104015 34.20557,23.0840175 30.1999785,22.6139626 C28.9711245,22.4697653 27.7832786,22.3849433 26.650342,22.3481871 C20.7027719,22.1460282 16.2405305,23.2268011 15.3042939,23.4791464 C15.1708437,23.5144889 15.12358,23.5286259 15.12358,23.5286259 C14.1178381,23.8276232 13.0641375,23.2395244 12.7694349,22.21742 C12.4747324,21.1939018 13.0502364,20.1201974 14.0580635,19.8212 C14.1859533,19.7858575 19.3932917,18.2420981 26.7740614,18.4880818 C28.0050006,18.5283722 29.2950193,18.6188489 30.6329967,18.7771832 C39.6144738,19.8480603 46.282119,24.1237932 46.4176543,24.2008398 C47.3052372,24.7663194 47.5742228,25.9601883 47.0181803,26.863542 Z" fill="#FFFFFF"/></g></g></svg>

<?xml version="1.0" encoding="UTF-8" standalone="no"?>
<svg
   height="60px"
   version="1.1"
   viewBox="0 0 60 60"
   width="60px"
   id="svg2"
   sodipodi:docname="spotify.svg"
   inkscape:version="1.4 (86a8ad7, 2024-10-11)"
   xmlns:inkscape="http://www.inkscape.org/namespaces/inkscape"
   xmlns:sodipodi="http://sodipodi.sourceforge.net/DTD/sodipodi-0.dtd"
   xmlns="http://www.w3.org/2000/svg"
   xmlns:svg="http://www.w3.org/2000/svg">
  <sodipodi:namedview
     id="namedview2"
     pagecolor="#ffffff"
     bordercolor="#000000"
     borderopacity="0.25"
     inkscape:showpageshadow="2"
     inkscape:pageopacity="0.0"
     inkscape:pagecheckerboard="0"
     inkscape:deskcolor="#d1d1d1"
     inkscape:zoom="9.2166667"
     inkscape:cx="30.05425"
     inkscape:cy="30"
     inkscape:window-width="1366"
     inkscape:window-height="705"
     inkscape:window-x="-8"
     inkscape:window-y="-8"
     inkscape:window-maximized="1"
     inkscape:current-layer="Spotify" />
  <title
     id="title1" />
  <defs
     id="defs1">
    <linearGradient
       id="swatch2"
       inkscape:swatch="solid">
      <stop
         style="stop-color:#008000;stop-opacity:1;"
         offset="0"
         id="stop2" />
    </linearGradient>
  </defs>
  <g
     fill="none"
     fill-rule="evenodd"
     id="black"
     stroke="none"
     stroke-width="1">
    <g
       id="Spotify">
      <path
         d="M 30,60 C 46.568543,60 60,46.568543 60,30 60,13.431457 46.568543,0 30,0 13.431457,0 0,13.431457 0,30 0,46.568543 13.431457,60 30,60 Z"
         fill="#000000"
         id="path1"
         style="fill:#008000;fill-opacity:1;opacity:1" />
      <path
         d="m 38.676152,41.537739 c -0.216857,-0.0064 -0.433018,-0.07069 -0.629023,-0.194384 -0.0021,0 -0.252999,-0.161869 -0.768034,-0.442488 -0.515729,-0.281326 -1.275422,-0.668679 -2.222085,-1.075118 -1.89124,-0.818532 -4.538697,-1.724713 -7.497539,-2.072483 -0.908434,-0.106027 -1.782811,-0.171057 -2.61896,-0.198625 -3.760238,-0.125819 -6.715604,0.443195 -7.920131,0.724521 -0.403131,0.09401 -0.58871,0.151266 -0.589405,0.151266 -0.670726,0.200038 -1.37273,-0.192263 -1.570125,-0.873666 -0.19531,-0.682817 0.188359,-1.398148 0.858391,-1.59748 0.08549,-0.02474 3.897858,-1.154992 9.301201,-0.977573 0.900789,0.0311 1.848147,0.09967 2.826781,0.214882 6.564778,0.781069 11.451002,3.915947 11.541358,3.963306 0.593576,0.378164 0.7729,1.172663 0.401741,1.774192 -0.246048,0.404318 -0.677677,0.618493 -1.11417,0.60365 z m 4.602642,-7.590858 c -0.309994,0.50257 -0.847965,0.772587 -1.393581,0.753502 -0.271071,-0.0092 -0.541447,-0.08977 -0.786106,-0.245277 -0.0014,0.0021 -0.05699,-0.03676 -0.20643,-0.125112 -0.150827,-0.08906 -0.377414,-0.21983 -0.672117,-0.380285 -0.593575,-0.323737 -1.463782,-0.769053 -2.55432,-1.239107 -2.175517,-0.940817 -5.220545,-1.979886 -8.622135,-2.378549 -1.04119,-0.122992 -2.048322,-0.195798 -3.01097,-0.227606 -4.326706,-0.145611 -7.727602,0.508225 -9.110062,0.831962 -0.461516,0.108855 -0.670727,0.171058 -0.672117,0.173178 -0.837539,0.247398 -1.717476,-0.241742 -1.962135,-1.09491 -0.246049,-0.853874 0.234233,-1.748039 1.073857,-1.994022 0.106344,-0.03322 4.518541,-1.340187 10.772629,-1.132373 1.04258,0.03464 2.136594,0.112389 3.270226,0.24669 7.606662,0.906181 13.261614,4.530199 13.374213,4.594522 0.738842,0.473589 0.964039,1.465299 0.499048,2.217387 z m 3.739386,-7.083339 c -0.373243,0.60365 -1.021033,0.925973 -1.673688,0.904061 -0.323199,-0.0106 -0.649179,-0.106028 -0.941797,-0.29405 0,0 -0.06811,-0.04382 -0.244658,-0.149145 -0.175154,-0.1032 -0.441359,-0.258 -0.791666,-0.44885 -0.697834,-0.378164 -1.724427,-0.90194 -3.008885,-1.457523 -2.564747,-1.107634 -6.151916,-2.334017 -10.157508,-2.804072 -1.228854,-0.144198 -2.416699,-0.22902 -3.549636,-0.265776 -5.94757,-0.202159 -10.409812,0.878614 -11.346048,1.130959 -0.13345,0.03534 -0.180714,0.04948 -0.180714,0.04948 -1.005742,0.298997 -2.059443,-0.289102 -2.354145,-1.311206 -0.294703,-1.023518 0.280801,-2.097223 1.288628,-2.39622 0.12789,-0.03534 5.335229,-1.579102 12.715998,-1.333118 1.23094,0.04029 2.520958,0.130767 3.858936,0.289101 8.981477,1.070877 15.649122,5.34661 15.784657,5.423657 0.887583,0.565479 1.156569,1.759348 0.600526,2.662702 z"
         fill="#FFFFFF"
         id="path2"
         style="fill:#000000" />
    </g>
  </g>
</svg>
